X:1
T:Prison of Newfoundland
M:6/8
L:1/8
K:C
 G|A-G A cAG| A2 GE-D C| EDE C2 B,| C3 z2 G| G2 GG-A c| d2- c e2 d|\
 c2 GB-G A| G3 z2 G| G2 GG-A c| d2 ce-d c|A-G AD-E G| c3 z2 G| AGAc-A G|\
 A2 G EDC| EDE C2 B,| C3 z2|

